X:1
T:Anna-Lena
R:Polska
S:Efter Per Johan Arnström
Z:Anton Teljebäck 2012-09-14
O:Bäsksjö, Vilhelmina, Västerbotten
M:3/4
L:1/8
K:Am
  vAB c2 AA | GG A2 Ac | e2 ec ed | B2 B4 | vA2 cc BB | GG A2 Ac | e2 ec ed | B2 B4 |
|: vc>c (3c(ec) ec | c>B (3B(dB) dB | BA A2 AA | GG E4 | vc>c (3c(ec) ec | c>B (3B(dB) dB | BA A2 AA | GG A4 :|

